X:39
T:39.  Roll in the Hay
C:c 1984 Harry Bolick  
R:Breakdown
O:United States
A:Brooklyn, New York
M:4/4
L:1/8
Q:300
K:G
|:"G" d2d2g2g2|bag2 "C"c4 |ecef "G"gfed|"C"cBAG FGAB|
 "G"dBdf g2g2|ba g2"C"c4|ecef "G"gfed|"C" cdef "G"g4 :|
|:g2ag"D" f2 gf|"C" e2fe"G"dcB2|"C"cBAG FGAB|cBAG FGAB|
"G"g2ag"D" f2 gf|"C" e2fe"G"dcB2| "C"CB,CD "D"E2F2|"G" G8:|
